packages/icons/src/svg/cog.svg

<svg xmlns="http://www.w3.org/2000/svg" viewBox="0 0 16 16">
  <path fill-rule="evenodd" d="M8.0007,10.9071581 C6.3817,10.9071581 5.0697,9.59869032 5.0697,7.98377097 C5.0697,6.36985968 6.3817,5.06139194 8.0007,5.06139194 C9.6197,5.06139194 10.9317,6.36985968 10.9317,7.98377097 C10.9317,9.59869032 9.6197,10.9071581 8.0007,10.9071581 L8.0007,10.9071581 Z M16.0007,8.91018226 L16.0007,6.96865 L13.6797,6.52006129 L13.6557,6.52207742 C13.5117,5.96764194 13.2907,5.44748065 13.0007,4.96965806 L14.3217,3.00796452 L12.9597,1.63498065 L11.0047,2.97167419 L10.9937,2.98175484 C10.5057,2.69143226 9.9767,2.46764194 9.4107,2.32752097 L8.9687,-0.0001 L7.0427,-0.0001 L6.6007,2.32449677 C6.0447,2.46159355 5.5247,2.68034355 5.0437,2.96260161 L4.9967,2.92127097 L3.0417,1.58256129 L1.6797,2.95554516 L3.0057,4.92731935 L3.0197,4.93840806 C2.7197,5.42429516 2.4937,5.95554516 2.3467,6.52207742 L2.3207,6.52006129 L0.0007,6.96865 L0.0007,8.91018226 L2.3187,9.35675484 C2.4607,9.94244032 2.6937,10.4878032 2.9977,10.9898194 L1.6807,12.9444565 L3.0427,14.3174403 L4.9977,12.9807468 C5.4827,13.2710694 6.0097,13.4928435 6.5717,13.6349806 L6.5737,13.6601823 L7.0177,15.9999 L8.9437,15.9999 L9.3877,13.6601823 L9.3867,13.6480855 C9.9677,13.5069565 10.5097,13.2771177 11.0077,12.9777226 L11.0247,12.9928435 L12.9797,14.3305452 L14.3417,12.9575613 L13.0147,10.9867952 L13.0087,10.9817548 C13.3107,10.4817548 13.5417,9.93941613 13.6827,9.35675484 L16.0007,8.91018226 Z"/>
</svg>

<svg xmlns="http://www.w3.org/2000/svg" viewBox="0 0 16 16">
	<path fill-rule="evenodd" d="M8 10.907a2.927 2.927 0 0 1-2.93-2.923A2.927 2.927 0 0 1 8 5.06a2.927 2.927 0 0 1 2.932 2.923A2.927 2.927 0 0 1 8 10.907zm8-1.997V6.97l-2.32-.449-.024.002A5.79 5.79 0 0 0 13 4.97l1.32-1.962-1.361-1.373-1.955 1.337-.011.01a5.832 5.832 0 0 0-1.583-.654L8.969 0H7.043L6.6 2.324a5.83 5.83 0 0 0-1.557.639l-.047-.042-1.955-1.338L1.68 2.956l1.326 1.971.014.011a5.759 5.759 0 0 0-.673 1.584L2.32 6.52 0 6.97v1.94l2.318.447c.142.585.375 1.13.679 1.633L1.68 12.944l1.362 1.373 1.955-1.336c.485.29 1.012.512 1.574.654l.002.025.444 2.34h1.926l.444-2.34-.001-.012a5.796 5.796 0 0 0 1.62-.67l.018.015 1.955 1.338 1.362-1.373-1.327-1.971-.006-.005a5.76 5.76 0 0 0 .674-1.625L16 8.91z"/>
</svg>
